!!!COM:	Busnoys, Antoine
!!!CDT:	~1430///-1492/11/06
!!!OTL:	Quelque pauvre homme II
!!!AGN:	Song; Chanson
!!!SCT:	Bus3052
!!!SCA:	Bus3052
!!!voices:	3
**kern	**kern	**kern
*staff3	*staff2	*staff1
*Ivox	*Ivox	*Ivox
*I"Contra	*I"Tenor	*I"Superius
*I'C	*I'T	*I'S
*clefGv2	*clefGv2	*clefG2
*k[]	*k[]	*k[]
*M2/1	*M2/1	*M2/1
*met(C|)	*met(C|)	*met(C|)
=1-	=1-	=1-
!	!	!LO:TX:Z=30:t=Rondeau
0d	0d	0dd
=2	=2	=2
1A	0a	0cc
1F	.	.
=3	=3	=3
1G	1g	1b
1A	1f	[1a
=4	=4	=4
1F	1d	1a]
1D	1f	[1dd
=5	=5	=5
0A	0e	1dd]
.	.	1cc#i
=6	=6	=6
0D	0d	1dd
.	.	[1ff
=7	=7	=7
1d	1r	2ff]
.	.	2ee
1c	1A	[1ee
=8	=8	=8
1A	1c	1ee]
1D	1d	[1dd
=9	=9	=9
0A	0e	1dd]
.	.	1cc#i
=10	=10	=10
0D	[0d	1dd
.	.	2cc
.	.	[2b
=11	=11	=11
1G	1d]	2b]
.	.	2a
1A	1c	[1a
=12	=12	=12
0E	0B	2a]
.	.	4g#i
.	.	4f#i
.	.	1g#i
=13	=13	=13
1F	1A	1.a
1D	[1d	.
.	.	4g
.	.	4f
=14	=14	=14
0A	1d]	0e
.	1c#i	.
=15	=15	=15
0D	1d	1d
.	[1a	[1f
=16	=16	=16
1r	1a]	1f]
1G	1g	[1e
=17	=17	=17
0D	1f	1e]
.	1d	[1d
=18	=18	=18
0A	0e	1d]
.	.	1c#i
=19	=19	=19
1.B-i	0d	0d
4A	.	.
4G	.	.
=20	=20	=20
1F	1.d	1r
1G	.	1dd
.	2c	.
=21	=21	=21
1r	0B	0dd
1d	.	.
=22	=22	=22
1e	0A	0cc
2r	.	.
2A	.	.
=23	=23	=23
0D	0d	0ff
=24	=24	=24
1G	1r	1ee
1F	1f	1dd
=25	=25	=25
0C	0e	0gg
=26	=26	=26
1D	1d	1ff
1A	1c	[1ee
=27	=27	=27
1D	1d	2ee]
.	.	2dd
1d	1f	[1dd
=28	=28	=28
0A	0e	1dd]
.	.	1cc#i
=29	=29	=29
1D	[0d	0dd
[1G	.	.
=30	=30	=30
2G]	0d]	1r
2F	.	.
1D	.	1ff
=31	=31	=31
1F	1r	1ff
1C	1c	2ee
.	.	2dd
=32	=32	=32
2c	2A	1cc
2A	2c	.
1G	1B	1dd
=33	=33	=33
2A	1A	2cc
2F	.	2a
2E	1G	1b
2G	.	.
=34	=34	=34
2F	2A	2a
2A	2c	1a
1E	1B	.
.	.	2g
=35	=35	=35
2F	1A	2a
2.A	.	4g
.	.	4f
.	2r	2e
4G	.	.
4F	2c	2g
4E	.	.
=36	=36	=36
1D	2d	1f
.	1a	.
1d	.	2e
.	[2f	[2a
=37	=37	=37
2A	4f]	2a]
.	4e	.
1c	2.e	2g
.	.	2f
.	4d	.
2d	[2d	4e
.	.	4d
=38	=38	=38
1A	2d]	1e
.	2c#i	.
[1D	[1d	1d
=39	=39	=39
1D]	1d]	1.f
[1d	[1f	.
.	.	2g
=40	=40	=40
2d]	2f]	1.a
4c	2g	.
4B	.	.
[1A	[1a	.
.	.	2g
=41	=41	=41
1A]	2a]	1a
.	4g	.
.	4f	.
1r	1e	[1cc
=42	=42	=42
1A	1c	2cc]
.	.	2b
[1D	[1d	[1b
=43	=43	=43
1D]	1d]	2b]
.	.	2a
1A	1c	[1a
=44	=44	=44
1E	0B	1a]
1G	.	1g
=45	=45	=45
1F	[0AN	0aN
[1D	.	.
=46	=46	=46
1D]N	0A]	1r
1A	.	1cc
=47	=47	=47
2D	1r	1dd
2G	.	.
2E	1c	1ee
2A	.	.
=48	=48	=48
1D	1d	1ff
1C	1e	2ee
.	.	2cc
=49	=49	=49
2d	2f	2dd
1c	1g	1ee
[2A	[2a	[2ff
=50	=50	=50
2A]	2a]	2ff]
2d	2f	1dd
1A	1e	.
.	.	2cc#i
=51	=51	=51
2r	0d	1dd
2D	.	.
1D	.	2r
.	.	2ff
=52	=52	=52
2A	2c	2ee
1D	2f	1dd
.	2d	.
[2C	[2e	[2gg
=53	=53	=53
2C]	2e]	2gg]
2r	1a	2ee
2D	.	2ff
2G	4g	4ee
.	4f	4dd
=54	=54	=54
2A	2e	2cc
2B-i	2d	2dd
2A	[1a	2cc
[2D	.	[2ff
=55	=55	=55
2D]	2a]	2ff]
2c	2g	1ee
1d	1f	.
.	.	2dd
=56	=56	=56
1A	1e	1ee
2A	2r	1a
[2A	2a	.
=57	=57	=57
2A]	2.f	2r
2d	.	2a
.	4g	.
2A	1a	2cc
2F	.	2dd
=58	=58	=58
2G	2g	2ee
1D	2f	1ff
.	2.d	.
[2G	.	2ee
.	4c	.
=59	=59	=59
2G]	2B	2dd
2A	2A	4cc
.	.	4b
2F	2r	2a
[2D	2a	2cc
=60	=60	=60
2D]	2f	2dd
1C	2g	1ee
.	2e	.
2D	2d	2ff
=61	=61	=61
2E	2g	2ee
1C	2.e	2.gg
.	4f	4ff
2r	[2g	4ee
.	.	4dd
=62	=62	=62
2c	2g]	2ee
1A	1a	1cc
[2D	2f	[2ff
=63	=63	=63
2D]	2e	2ff]
1A	1c	2.ee
.	.	4dd
2d	2d	[2dd
=64	=64	=64
2.A	0e	2dd]
.	.	4cc#i
4A	.	4b
1A	.	1cc#i
=65	=65	=65
0Dl	0dl	0ddl
==	==	==
*-	*-	*-
!!!RDF**kern: l=long note in original notation
!!!RDF**kern: i=editorial accidental
!!!RDF**kern: N=signum congruentiae
!!!ENC:	Chris Gage 04-15-2015
!!!END:	2015/05/13/
!!!EED:	Jesse Rodin
!!!EEV:	2015/09/21/
!!!ONB:	Translated from MusicXML and edited on 2015/09/21/ by Craig Sapp
!!muse2ps: C^@{COM}^i2I150v95,95,150Q16
